js30#1.3-custom-video/assets/svg/mute.svg

<svg width="36" height="36" viewBox="0 0 36 36" fill="none" xmlns="http://www.w3.org/2000/svg">
<path d="M18.405 2.38701C17.96 2.38701 17.574 2.55001 17.249 2.87501L8.69302 11.431H1.96102C1.51502 11.431 1.13002 11.594 0.805017 11.919C0.480017 12.244 0.317017 12.63 0.317017 13.075V22.94C0.317017 23.385 0.480017 23.771 0.805017 24.096C1.13002 24.421 1.51602 24.584 1.96102 24.584H8.69302L17.249 33.14C17.575 33.465 17.96 33.628 18.405 33.628C18.85 33.628 19.236 33.465 19.561 33.14C19.886 32.815 20.049 32.429 20.049 31.984V4.02901C20.049 3.58401 19.886 3.19801 19.561 2.87301C19.236 2.54801 18.85 2.38501 18.405 2.38501V2.38701Z" fill="white"/>
<path d="M31.902 18.679L35.37 15.211C35.59 14.991 35.7 14.723 35.7 14.409C35.7 14.095 35.59 13.827 35.37 13.607L33.766 12.003C33.546 11.783 33.278 11.673 32.964 11.673C32.65 11.673 32.382 11.783 32.162 12.003L28.694 15.471L25.226 12.003C25.006 11.783 24.738 11.673 24.424 11.673C24.11 11.673 23.842 11.783 23.622 12.003L22.018 13.607C21.798 13.827 21.688 14.095 21.688 14.409C21.688 14.723 21.798 14.991 22.018 15.211L25.486 18.679L22.018 22.147C21.798 22.367 21.688 22.635 21.688 22.949C21.688 23.263 21.798 23.531 22.018 23.751L23.622 25.355C23.842 25.575 24.11 25.685 24.424 25.685C24.738 25.685 25.006 25.575 25.226 25.355L28.694 21.887L32.162 25.355C32.382 25.575 32.649 25.685 32.964 25.685C33.279 25.685 33.546 25.575 33.766 25.355L35.37 23.751C35.59 23.531 35.7 23.263 35.7 22.949C35.7 22.635 35.59 22.367 35.37 22.147L31.902 18.679V18.679Z" fill="white"/>
</svg>

<!-- Generated by IcoMoon.io -->
<svg version="1.1" xmlns="http://www.w3.org/2000/svg" width="36" height="36" viewBox="0 0 36 36">
<title>mute</title>
<path fill="#b3b3b3" d="M18.405 2.387c-0.445 0-0.831 0.163-1.156 0.488l-8.556 8.556h-6.732c-0.446 0-0.831 0.163-1.156 0.488s-0.488 0.711-0.488 1.156v9.865c0 0.445 0.163 0.831 0.488 1.156s0.711 0.488 1.156 0.488h6.732l8.556 8.556c0.326 0.325 0.711 0.488 1.156 0.488s0.831-0.163 1.156-0.488 0.488-0.711 0.488-1.156v-27.955c0-0.445-0.163-0.831-0.488-1.156s-0.711-0.488-1.156-0.488z"></path>
<path fill="#b3b3b3" d="M31.902 18.679l3.468-3.468c0.22-0.22 0.33-0.488 0.33-0.802s-0.11-0.582-0.33-0.802l-1.604-1.604c-0.22-0.22-0.488-0.33-0.802-0.33s-0.582 0.11-0.802 0.33l-3.468 3.468-3.468-3.468c-0.22-0.22-0.488-0.33-0.802-0.33s-0.582 0.11-0.802 0.33l-1.604 1.604c-0.22 0.22-0.33 0.488-0.33 0.802s0.11 0.582 0.33 0.802l3.468 3.468-3.468 3.468c-0.22 0.22-0.33 0.488-0.33 0.802s0.11 0.582 0.33 0.802l1.604 1.604c0.22 0.22 0.488 0.33 0.802 0.33s0.582-0.11 0.802-0.33l3.468-3.468 3.468 3.468c0.22 0.22 0.487 0.33 0.802 0.33s0.582-0.11 0.802-0.33l1.604-1.604c0.22-0.22 0.33-0.488 0.33-0.802s-0.11-0.582-0.33-0.802l-3.468-3.468z"></path>
</svg>
